X: 3359
T: WEDDING DAY
%R: reel
B: James Kerr "Merry Melodies" v.3 p.39 #359
Z: 2016 John Chambers <jc:trillian.mit.edu>
M: C
L: 1/8
K: F
c2 |\
AcAc fcAc | BdBd fdBd |\
cegb agfe | gfed cdcB |\
AcAc fcAc | BdBd fdBd |\
cegb agfe | g2f2 f2 :|
|: (ef) |\
gece gece | afcf afcf |\
gece g2(ga) | gfed c2(c=B) |\
cege cege | cfaf cfaf |\
bagf efge | f2a2 f2 :|

%%sep 1 1 500
%%sep 1 1 500

